src/lib/packages/icons/src/assets/line/message-exclamation.svg

<svg xmlns="http://www.w3.org/2000/svg" width="24" height="24" fill="none"><path fill="currentColor" d="M18 2.25H6C3.582 2.25 2.25 3.582 2.25 6v15a.75.75 0 0 0 1.28.53l2.78-2.78H18c2.418 0 3.75-1.332 3.75-3.75V6c0-2.418-1.332-3.75-3.75-3.75ZM20.25 15c0 1.577-.673 2.25-2.25 2.25H6a.747.747 0 0 0-.53.22l-1.72 1.72V6c0-1.577.673-2.25 2.25-2.25h12c1.577 0 2.25.673 2.25 2.25v9Zm-7.23-1.5a1 1 0 0 1-1 1 1.005 1.005 0 0 1-1.005-1c0-.552.443-1 .995-1h.01a1 1 0 0 1 1 1Zm-1.77-3v-3a.75.75 0 0 1 1.5 0v3a.75.75 0 0 1-1.5 0Z"/></svg>

<svg width="24" height="24" viewBox="0 0 24 24" fill="none" xmlns="http://www.w3.org/2000/svg">
<path d="M18 2.25H6C3.582 2.25 2.25 3.582 2.25 6V21C2.25 21.303 2.43289 21.577 2.71289 21.693C2.80589 21.732 2.903 21.75 3 21.75C3.195 21.75 3.38703 21.674 3.53003 21.53L6.31006 18.75H18C20.418 18.75 21.75 17.418 21.75 15V6C21.75 3.582 20.418 2.25 18 2.25ZM20.25 15C20.25 16.577 19.577 17.25 18 17.25H6C5.801 17.25 5.60997 17.329 5.46997 17.47L3.75 19.1899V6C3.75 4.423 4.423 3.75 6 3.75H18C19.577 3.75 20.25 4.423 20.25 6V15ZM13.02 13.5C13.02 14.052 12.573 14.5 12.02 14.5C11.468 14.5 11.0149 14.052 11.0149 13.5C11.0149 12.948 11.458 12.5 12.01 12.5H12.02C12.572 12.5 13.02 12.948 13.02 13.5ZM11.25 10.5V7.5C11.25 7.086 11.586 6.75 12 6.75C12.414 6.75 12.75 7.086 12.75 7.5V10.5C12.75 10.914 12.414 11.25 12 11.25C11.586 11.25 11.25 10.914 11.25 10.5Z" fill="currentColor"/>
</svg>
